src/icons/compare-changes.svg

<svg width="16" height="16" viewBox="0 0 16 16" fill="none" xmlns="http://www.w3.org/2000/svg">
<path fill-rule="evenodd" clip-rule="evenodd" d="M12.5108 4.66879V10.4526L12.5189 10.4445C12.995 10.5663 13.4101 10.8578 13.6865 11.264C13.9629 11.6703 14.0816 12.1635 14.0202 12.6511C13.9588 13.1386 13.7216 13.587 13.3531 13.912C12.9845 14.237 12.51 14.4164 12.0186 14.4164C11.5273 14.4164 11.0527 14.237 10.6841 13.912C10.3156 13.587 10.0784 13.1386 10.017 12.6511C9.95561 12.1635 10.0742 11.6703 10.3507 11.264C10.6271 10.8578 11.0422 10.5663 11.5183 10.4445V4.66879C11.5187 4.58235 11.5022 4.49661 11.4695 4.41657C11.4362 4.33412 11.3863 4.25945 11.323 4.19701C11.2621 4.1319 11.187 4.08174 11.1035 4.05054C11.0234 4.01789 10.9377 4.00125 10.8513 4.00168H8.04478L9.34633 5.34395L8.62232 6.03539L6.50729 3.84717V3.14759L8.67922 0.983704L9.3789 1.69143L8.06911 3.00112H10.8431C11.0639 3.00044 11.2826 3.04475 11.4858 3.1313C11.6863 3.21471 11.8686 3.33622 12.0227 3.48919C12.1775 3.64662 12.3015 3.83147 12.3887 4.03426C12.4698 4.23596 12.5112 4.45142 12.5108 4.66879ZM11.4392 13.2463C11.6075 13.357 11.805 13.4153 12.0064 13.4137V13.43C12.1407 13.4289 12.2733 13.4013 12.3968 13.3487C12.5203 13.2961 12.6322 13.2196 12.726 13.1236C12.8197 13.0275 12.8936 12.9138 12.9432 12.7891C12.9929 12.6644 13.0173 12.5311 13.0151 12.3969C13.0151 12.1954 12.9552 11.9984 12.8431 11.831C12.7311 11.6636 12.5717 11.5334 12.3855 11.4567C12.1992 11.38 11.9944 11.3603 11.7969 11.4002C11.5994 11.4401 11.4182 11.5378 11.2764 11.6808C11.1345 11.8238 11.0383 12.0057 11 12.2035C10.9617 12.4013 10.983 12.606 11.0612 12.7917C11.1394 12.9773 11.2709 13.1355 11.4392 13.2463ZM6.97907 11.9901L5.67752 10.6479L6.39339 9.92384L8.50842 12.1122V12.8117L6.33639 14.9675L5.63681 14.2598L6.9465 12.9581H4.1726C3.73711 12.9563 3.31926 12.7858 3.0068 12.4825C2.69434 12.1791 2.51151 11.7664 2.49679 11.3311V5.48227C2.02296 5.36046 1.60985 5.06991 1.33495 4.66521C1.06006 4.26052 0.942292 3.76949 1.00368 3.28412C1.06507 2.79876 1.30141 2.35245 1.66841 2.02895C2.03541 1.70544 2.50784 1.52698 2.99707 1.52698C3.4863 1.52698 3.95872 1.70544 4.32573 2.02895C4.69273 2.35245 4.92916 2.79876 4.99055 3.28412C5.05194 3.76949 4.93408 4.26052 4.65918 4.66521C4.38429 5.06991 3.97117 5.36046 3.49735 5.48227V11.323C3.49734 11.4113 3.51486 11.4987 3.54889 11.5802C3.58292 11.6617 3.63285 11.7356 3.69566 11.7977C3.75846 11.8597 3.83294 11.9086 3.91482 11.9417C3.99669 11.9747 4.08432 11.9912 4.1726 11.9901H6.97907ZM2.16859 2.96189C2.05748 3.13035 1.99897 3.3281 2.00057 3.5299C2.0027 3.79677 2.10967 4.05209 2.29838 4.2408C2.48709 4.42951 2.74241 4.53648 3.00928 4.5386C3.21108 4.54021 3.40883 4.4818 3.57729 4.37068C3.74575 4.25957 3.87736 4.10082 3.95533 3.91469C4.0333 3.72856 4.05409 3.52344 4.01511 3.32543C3.97613 3.12743 3.87917 2.9455 3.73647 2.80281C3.59377 2.66011 3.41175 2.56304 3.21374 2.52407C3.01574 2.48509 2.81062 2.50598 2.62449 2.58395C2.43835 2.66192 2.2797 2.79343 2.16859 2.96189Z" fill="#C5C5C5"/>
</svg>

<svg width="16" height="16" xmlns="http://www.w3.org/2000/svg"><path fill-rule="evenodd" clip-rule="evenodd" d="M12.51 4.669v5.784l.009-.008a2.017 2.017 0 1 1-1 0V4.668a.659.659 0 0 0-.196-.472.66.66 0 0 0-.472-.195H8.045l1.301 1.342-.724.691-2.115-2.188v-.7L8.68.985l.7.707-1.31 1.31h2.774a1.675 1.675 0 0 1 1.546 1.033c.08.202.122.417.122.635zm-1.07 8.577c.168.111.365.17.566.168v.016a1.017 1.017 0 0 0 1.01-1.033 1.017 1.017 0 1 0-1.577.85zM6.98 11.99l-1.302-1.342.715-.724 2.115 2.188v.7l-2.172 2.155-.7-.707 1.31-1.302H4.174a1.684 1.684 0 0 1-1.676-1.627V5.482a2.01 2.01 0 1 1 1 0v5.841a.667.667 0 0 0 .676.667H6.98zM2.168 2.962a1.017 1.017 0 1 0 1.698 1.12 1.017 1.017 0 0 0-1.698-1.12z"/></svg>
